icons/op-file-doc-24.svg

<svg width="24" height="24" viewBox="0 0 24 24" fill="none" xmlns="http://www.w3.org/2000/svg">
<path d="M9.1145 15.9062H14.7939V16.875H9.1145V15.9062Z" fill="black"/>
<path d="M9.14504 14H14.8244V15H9.14504V14Z" fill="black"/>
<path d="M9.14504 12.0938H14.8244V13.0938H9.14504V12.0938Z" fill="black"/>
<path fill-rule="evenodd" clip-rule="evenodd" d="M18 7.6875L14.3969 4H6V20H18V7.6875ZM7.40458 18.5625V5.4375H13.8168L16.5954 8.3125V18.5625H7.40458Z" fill="black"/>
</svg>

<svg xmlns="http://www.w3.org/2000/svg" width="24" height="24" viewBox="0 0 24 24"><path d="M9.114 15.906h5.68v.969h-5.68v-.969ZM9.145 14h5.679v1H9.145v-1Zm0-1.906h5.679v1H9.145v-1Z"/><path d="M18 7.688V20H6V4h8.397ZM7.405 18.562h9.19V8.312l-2.778-2.874H7.405Z"/></svg>
